public/icon/icon-arrow-next-black.svg

<svg width="20" height="20" viewBox="0 0 20 20" fill="none" xmlns="http://www.w3.org/2000/svg">
<path fill-rule="evenodd" clip-rule="evenodd" d="M5.30935 18.104C4.85471 17.5341 4.90731 16.6678 5.42682 16.169L11.8519 10.0008L5.42683 3.83263C4.90731 3.33389 4.85472 2.46756 5.30935 1.89764C5.76399 1.32772 6.55369 1.27003 7.07321 1.76877L14.5732 8.96891C14.8444 9.2293 15 9.60545 15 10.0008C15 10.3962 14.8444 10.7724 14.5732 11.0328L7.07321 18.2329C6.55369 18.7316 5.76399 18.6739 5.30935 18.104Z" fill="#020F19"/>
</svg>

<svg width="20" height="20" fill="none" xmlns="http://www.w3.org/2000/svg"><path fill-rule="evenodd" clip-rule="evenodd" d="M5.31 18.104c-.455-.57-.403-1.436.117-1.935l6.425-6.168-6.425-6.168c-.52-.5-.572-1.365-.118-1.935.455-.57 1.245-.628 1.764-.13l7.5 7.2c.271.261.427.637.427 1.033 0 .395-.156.771-.427 1.032l-7.5 7.2c-.52.499-1.309.44-1.764-.129z" fill="#020F19"/></svg>
